X:1
T:D minor Oliver Holden, 1800
T:Benjamin Beddome, 1778 86. 86. (C. M.)
T:Bitter Sweet No copyright. Rewritten with Counter by B. C. Johnston, 2015.
%%score [ 1 2 3 4 ]
L:1/8
M:4/4
K:F
V:1 treble nm="Treble" snm="Tr."
V:2 treble nm="Counter" snm="C."
V:3 treble-8 nm="Tenor" snm="T."
V:4 bass nm="Bass" snm="B."
V:1
 A2 | c2 A2 d2 de | f2 AG F2 G2 | A2 d2 AG F2 | E6 A2 | A2 d2 ^c2 e2 | f2 A2 G2 FG | A2 F2 A2 =B2 | %8
 c6 A2 | F2 G2 A2 A2 | F2 E2 D2 FG | A2 d2 e2 d2 | ^c6 d2 | A2 d2 ^c2 e2 | d6 |] %15
V:2
 D2 | F2 D2 F2 DE | F2 E2 D2 G2 | A2 A2 AG A2 | A6 E2 | F2 A2 E2 E2 | F2 A2 G2 AG | A2 F2 D2 F2 | %8
w: 1.~What|is the world, with *|all its toys? 'Tis|but a bit- * ter|sweet: When|I at- tempt to|pluck the rose, A *|prick- ly thorn I|
 E6 A2 | A2 ^c2 A2 A2 | F2 E2 F2 DE | F2 A2 A2 A2 | A6 A2 | F2 D2 ED E2 | F6 |] %15
w: meet; When|I at- tempt to|pluck the rose, A *|prick- ly thorn I|meet, A|prick- ly thorn * I|meet.|
V:3
 d2 | f2 d2 A2 A2 | d2 ^c2 d2 e2 | f2 A2 F2 D2 | A6 ^c2 | d2 A2 A2 A2 | A2 c2 c2 c2 | f2 d2 A2 F2 | %8
 G6 f2 | f2 e2 d2 d2 | d2 ^c2 d2 A2 | f2 A2 A2 f2 | e6 f2 | f2 d2 A2 ^c2 | d6 |] %15
V:4
 D,2 | D,2 D,2 D,2 F,G, | A,2 A,,2 D,2 ^C,2 | D,2 D,2 D,2 D,2 | A,,6 A,,2 | D,2 D,2 A,2 A,2 | %6
 F,2 F,2 C,2 C,2 | D,2 D,2 F,2 D,2 | C,6 F,2 | A,2 G,2 F,2 D,2 | A,,2 A,,2 D,2 D,2 | %11
 F,2 D,2 A,2 A,2 | A,6 D,2 | D,2 D,2 A,2 [A,,A,]2 | D,6 |] %15

